src/assets/images/prototype/produits-armoire/7-degraissant.svg

<svg width="326" height="714" viewBox="0 0 326 714" fill="none" xmlns="http://www.w3.org/2000/svg">
<mask id="mask0_1100_80" style="mask-type:alpha" maskUnits="userSpaceOnUse" x="0" y="0" width="326" height="714">
<rect width="326" height="714" fill="#D9D9D9"/>
</mask>
<g mask="url(#mask0_1100_80)">
<path d="M125.177 203.204C125.235 186.727 140.836 171.582 148.629 166.068L219.865 166.318C228.131 181.524 248.773 216.646 257.218 235.465C267.773 258.989 292.802 355.192 304.787 437.619C316.772 520.046 303.982 667.065 291.655 682.198C279.327 697.331 223.256 702.554 179.483 700.955C135.71 699.356 69.0103 702.013 42.4454 693.609C15.8805 685.205 9.0219 541.007 24.7721 483.249C40.5223 425.49 134.293 287.066 138.861 267.931C143.429 248.796 125.105 223.8 125.177 203.204Z" fill="white" stroke="#81EC40" stroke-width="13"/>
<path d="M148.98 107.746L148.777 165.582L218.903 165.828L219.106 107.992L185.851 107.875L148.98 107.746Z" fill="white" stroke="#81EC40" stroke-width="13"/>
<path d="M111.496 76.8876C124.779 82.4287 141.778 100.249 148.617 108.467L218.743 108.713C219.602 104.137 223.276 94.197 231.095 91.0435C240.869 87.1015 255.662 95.1059 265.483 77.4281C275.305 59.7502 248.971 44.4755 205.296 26.2483C170.356 11.6666 110.009 19.8893 84.2025 25.8234L84.0337 73.8994C91.6247 73.9261 98.2126 71.3466 111.496 76.8876Z" fill="white" stroke="#81EC40" stroke-width="13"/>
<path d="M83.5596 26.4599C74.8749 29.0803 57.6402 37.141 58.179 48.421C58.7178 59.7011 75.2123 70.29 83.3921 74.1745" stroke="#81EC40" stroke-width="13"/>
<path d="M109.334 108.478C118.512 103.415 127.581 94.211 130.969 90.2421C117.172 75.5443 103.067 73.0709 97.7386 73.6715C96.6656 75.8793 94.2502 81.1962 93.1724 84.8017C91.825 89.3085 56.0026 128.46 50.644 137.73C45.2854 147 42.3495 148.847 50.5965 151.264C58.8435 153.682 69.8196 137.266 79.7035 128.543C89.5874 119.82 97.8605 114.807 109.334 108.478Z" fill="white" stroke="#81EC40" stroke-width="13"/>
</g>
</svg>

<svg width="326" height="714" fill="none" xmlns="http://www.w3.org/2000/svg"><mask id="a" style="mask-type:alpha" maskUnits="userSpaceOnUse" x="0" y="0" width="326" height="714"><path fill="#D9D9D9" d="M0 0h326v714H0z"/></mask><g mask="url(#a)" stroke="#81EC40" stroke-width="13"><path d="M125.177 203.204c.058-16.477 15.659-31.622 23.452-37.136l71.236.25c8.266 15.206 28.908 50.328 37.353 69.147 10.555 23.524 35.584 119.727 47.569 202.154 11.985 82.427-.805 229.446-13.132 244.579-12.328 15.133-68.399 20.356-112.172 18.757-43.773-1.599-110.473 1.058-137.038-7.346-26.565-8.404-33.423-152.602-17.673-210.36 15.75-57.759 109.521-196.183 114.089-215.318 4.568-19.135-13.756-44.131-13.684-64.727zm23.803-95.458l-.203 57.836 70.126.246.203-57.836-33.255-.117-36.871-.129z" fill="#fff"/><path d="M111.496 76.888c13.283 5.54 30.282 23.361 37.121 31.579l70.126.246c.859-4.576 4.533-14.516 12.352-17.67 9.774-3.942 24.567 4.063 34.388-13.615 9.822-17.678-16.512-32.953-60.187-51.18-34.94-14.581-95.287-6.359-121.093-.425l-.17 48.076c7.592.027 14.18-2.552 27.463 2.989z" fill="#fff"/><path d="M83.56 26.46c-8.685 2.62-25.92 10.68-25.381 21.96.539 11.28 17.033 21.869 25.213 25.753"/><path d="M109.334 108.478c9.178-5.063 18.247-14.267 21.635-18.236-13.797-14.698-27.902-17.171-33.23-16.57-1.073 2.207-3.489 7.524-4.567 11.13-1.347 4.506-37.17 43.658-42.528 52.928-5.359 9.27-8.294 11.117-.047 13.534 8.246 2.418 19.223-13.998 29.107-22.721 9.883-8.723 18.157-13.736 29.63-20.065z" fill="#fff"/></g></svg>
